teeny/solid/lock.svg

<svg width="15" height="15" viewBox="0 0 15 15" fill="none" xmlns="http://www.w3.org/2000/svg">
<path fill-rule="evenodd" clip-rule="evenodd" d="M11 3.5V6H12.5C13.3284 6 14 6.67157 14 7.5V13.5C14 14.3284 13.3284 15 12.5 15H2.5C1.67157 15 1 14.3284 1 13.5V7.5C1 6.67157 1.67157 6 2.5 6H4V3.5C4 1.567 5.567 0 7.5 0C9.433 0 11 1.567 11 3.5ZM5 3.5C5 2.11929 6.11929 1 7.5 1C8.88071 1 10 2.11929 10 3.5V6H5V3.5Z" fill="black"/>
</svg>

<svg viewBox="0 0 15 15" xmlns="http://www.w3.org/2000/svg"><path fill-rule="evenodd" d="M11 3.5V6h1.5c.82 0 1.5.67 1.5 1.5v6c0 .82-.68 1.5-1.5 1.5h-10c-.83 0-1.5-.68-1.5-1.5v-6C1 6.67 1.67 6 2.5 6H4V3.5C4 1.567 5.56 0 7.5 0 9.43 0 11 1.567 11 3.5Zm-6 0C5 2.11 6.11 1 7.5 1 8.88 1 10 2.11 10 3.5V6H5V3.5Z"/></svg>
